agir/front/components/notFoundPage/illustration.svg

<svg width="163" height="175" viewBox="0 0 163 175" fill="none" xmlns="http://www.w3.org/2000/svg">
<path d="M60 0C80.9891 0 98 13.7156 98 30.6429C98 37.95 94.8234 44.6384 89.5391 49.8978C91.3945 57.3228 97.5992 63.9375 97.6734 64.0112C98 64.35 98.0891 64.8509 97.8961 65.2929C97.7031 65.7348 97.2875 66 96.8125 66C86.9711 66 79.5938 61.3152 75.9422 58.4277C71.0883 60.2397 65.7 61.2857 60 61.2857C39.0109 61.2857 22 47.5701 22 30.6429C22 13.7156 39.0109 0 60 0Z" fill="#C4C4C4"/>
<g clip-path="url(#clip0)">
<path fill-rule="evenodd" clip-rule="evenodd" d="M46.3417 17.3403C46.7973 16.8866 47.536 16.8866 47.9916 17.3403L73.6583 42.9048C74.1139 43.3586 74.1139 44.0943 73.6583 44.5481C73.2027 45.0019 72.464 45.0019 72.0084 44.5481L46.3417 18.9837C45.8861 18.5299 45.8861 17.7941 46.3417 17.3403Z" fill="white"/>
<path fill-rule="evenodd" clip-rule="evenodd" d="M64.4582 29.3423C64.7408 28.7655 65.4393 28.5262 66.0183 28.8076C67.0613 29.3146 68.0366 29.9494 68.9215 30.6973C69.4128 31.1125 69.4731 31.8458 69.0562 32.3352C68.6393 32.8245 67.9031 32.8846 67.4118 32.4694C66.6751 31.8467 65.8632 31.3183 64.9949 30.8962C64.4159 30.6147 64.1756 29.919 64.4582 29.3423Z" fill="white"/>
<path fill-rule="evenodd" clip-rule="evenodd" d="M59.0149 28.6098C59.1237 29.2424 58.6971 29.843 58.062 29.9514C56.0436 30.2958 54.1527 31.1664 52.5817 32.4748C52.0873 32.8864 51.3516 32.821 50.9383 32.3287C50.525 31.8363 50.5907 31.1035 51.085 30.6918C52.9721 29.1203 55.2434 28.0744 57.668 27.6607C58.3031 27.5524 58.9061 27.9773 59.0149 28.6098Z" fill="white"/>
<path fill-rule="evenodd" clip-rule="evenodd" d="M65.5199 24.8618C63.2893 24.1225 60.932 23.8384 58.5887 24.0264C57.9465 24.078 57.3839 23.6012 57.3321 22.9615C57.2804 22.3218 57.7591 21.7615 58.4013 21.7099C61.057 21.4968 63.7286 21.8188 66.2566 22.6567C68.7846 23.4946 71.1172 24.8312 73.1152 26.5868C73.5984 27.0113 73.6445 27.7456 73.2182 28.2269C72.792 28.7081 72.0547 28.7541 71.5715 28.3295C69.8087 26.7805 67.7505 25.6011 65.5199 24.8618Z" fill="white"/>
<path fill-rule="evenodd" clip-rule="evenodd" d="M54.2253 23.6852C54.4617 24.2823 54.1674 24.9571 53.568 25.1925C51.685 25.9322 49.946 26.9936 48.4293 28.3288C47.9466 28.7538 47.2093 28.7086 46.7825 28.2277C46.3558 27.7469 46.4012 27.0125 46.884 26.5875C48.6041 25.0732 50.5763 23.8694 52.712 23.0306C53.3114 22.7951 53.9889 23.0882 54.2253 23.6852Z" fill="white"/>
<path fill-rule="evenodd" clip-rule="evenodd" d="M60.0058 35.5938C58.7951 35.5938 57.6144 35.969 56.6274 36.6674C56.1021 37.0391 55.3738 36.9163 55.0006 36.3931C54.6274 35.87 54.7507 35.1445 55.276 34.7729C56.6578 33.7951 58.3108 33.2697 60.0058 33.2697C61.7009 33.2697 63.3539 33.7951 64.7357 34.7729C65.261 35.1445 65.3843 35.87 65.0111 36.3931C64.6379 36.9163 63.9096 37.0391 63.3843 36.6674C62.3973 35.969 61.2166 35.5938 60.0058 35.5938Z" fill="white"/>
<path fill-rule="evenodd" clip-rule="evenodd" d="M58.8333 40.2404C58.8333 39.5986 59.3556 39.0783 60 39.0783H60.0116C60.656 39.0783 61.1783 39.5986 61.1783 40.2404C61.1783 40.8821 60.656 41.4024 60.0116 41.4024H60C59.3556 41.4024 58.8333 40.8821 58.8333 40.2404Z" fill="white"/>
</g>
<path d="M113.67 76.9578C113.674 76.281 113.539 75.6105 113.273 74.9882C113.007 74.3659 112.616 73.8051 112.123 73.3409C111.631 72.8767 111.048 72.5189 110.411 72.2901C109.774 72.0612 109.097 71.9661 108.422 72.0107C107.746 72.0553 107.087 72.2387 106.486 72.5493C105.885 72.86 105.354 73.2913 104.927 73.8163C104.5 74.3412 104.186 74.9486 104.004 75.6005C103.822 76.2524 103.776 76.9348 103.87 77.6051L89.7242 96.1296C89.1205 97.3368 88.8865 98.6953 89.0514 100.035C89.2163 101.375 89.7728 102.636 90.6511 103.66L91.7608 104.955L96.8522 103.937L102.623 98.8451L101.944 93.0747L109.072 81.8733L109.063 81.8653C110.31 81.7858 111.481 81.2343 112.337 80.3228C113.193 79.4112 113.669 78.2081 113.67 76.9578Z" fill="#FFB9B9"/>
<path d="M15.1691 167.114L12.86 158.538L44.8393 145.551L48.2472 158.208L15.1691 167.114Z" fill="#FFB8B8"/>
<path d="M7.44499 171.539L0 143.887L0.349747 143.793C3.2042 143.024 6.24699 143.421 8.80885 144.896C11.3707 146.371 13.2418 148.803 14.0106 151.658L14.0108 151.658L18.5579 168.547L7.44499 171.539Z" fill="#777777"/>
<path d="M59.2192 165.743L52.0368 160.52L68.7662 130.33L79.3671 138.039L59.2192 165.743Z" fill="#FFB8B8"/>
<path d="M55.988 174.038L32.828 157.195L33.041 156.903C34.7797 154.512 37.3968 152.91 40.3167 152.449C43.2366 151.987 46.2201 152.705 48.611 154.443L48.6115 154.444L62.7568 164.731L55.988 174.038Z" fill="#777777"/>
<path d="M120.274 123.555L102.2 105.997C100.622 104.464 98.5448 103.553 96.349 103.43C94.1532 103.308 91.9869 103.982 90.2486 105.329L56.1212 143.242L59.1762 147.994L91.7618 125.931L113.825 154.783L134.87 144.261L120.274 123.555Z" fill="#777777"/>
<path d="M112.468 127.289L99.2295 126.271L89.6426 123.946C89.1011 123.102 88.3144 122.442 87.3879 122.057C86.4614 121.672 85.4393 121.578 84.4584 121.79C83.4775 122.002 82.5846 122.508 81.8993 123.241C81.214 123.974 80.769 124.899 80.6239 125.892C80.4788 126.885 80.6404 127.898 81.0872 128.797C81.534 129.695 82.2446 130.436 83.1239 130.919C84.0032 131.403 85.0092 131.606 86.0073 131.502C87.0053 131.398 87.9478 130.991 88.7084 130.337L88.707 130.344L94.4775 132.72L119.256 141.206L122.311 138.83L112.468 127.289Z" fill="#FFB9B9"/>
<path d="M144.374 163.948L136.907 168.7H128.081L87.0099 153.426L26.9299 164.288L25.2327 151.389L80.2214 127.289L128.421 143.242L144.374 163.948Z" fill="#777777"/>
<path d="M128.421 81.4651C135.732 81.4651 141.659 75.5383 141.659 68.2271C141.659 60.916 135.732 54.9892 128.421 54.9892C121.11 54.9892 115.183 60.916 115.183 68.2271C115.183 75.5383 121.11 81.4651 128.421 81.4651Z" fill="#FFB9B9"/>
<path d="M162.673 121.081C162.673 129.07 161.414 137.009 158.943 144.607L157.952 147.655L153.2 169.379L148.108 170.737L144.374 165.985L136.907 160.554L131.476 151.728L126.819 143.969L125.366 141.545L120.275 116.088L100.927 105.226L94.4774 104.207L95.8352 100.474L101.606 92.6665L107.376 91.9876L109.073 90.6299L110.431 91.3087L117.915 94.1921L142.182 83.9396L145.732 84.52L157.952 94.7031C161.076 103.147 162.674 112.078 162.673 121.081Z" fill="#CCCCCC"/>
<path opacity="0.1" d="M158.97 118.124L146.072 126.61L126.819 143.968L125.366 141.545L121.293 121.179H122.311L132.834 101.832L158.97 118.124Z" fill="black"/>
<path d="M132.834 99.7947L122.311 119.142L116.201 125.931L110.771 127.289L125.366 143.242L146.072 124.573L158.97 116.087L132.834 99.7947Z" fill="#CCCCCC"/>
<path d="M118.125 58.3841L116.69 58.936C116.473 58.7885 116.286 58.5997 116.141 58.3802C115.996 58.1606 115.896 57.9148 115.847 57.6566C115.797 57.3984 115.799 57.1329 115.851 56.8753C115.904 56.6178 116.007 56.3731 116.155 56.1554C116.163 56.144 116.17 56.1326 116.178 56.1214L113.528 55.9974C115.229 53.7312 117.393 51.8523 119.875 50.4848C122.357 49.1173 125.101 48.2924 127.925 48.0647C130.75 47.837 133.591 48.2118 136.26 49.1641C138.928 50.1164 141.365 51.6247 143.407 53.589C143.528 53.1734 144.843 53.982 145.381 54.8019C145.561 54.1256 146.794 57.3949 147.231 59.7059C147.433 58.9365 148.209 60.1787 147.529 61.3706C147.96 61.3076 148.155 62.4105 147.821 63.0249C148.293 62.8034 148.213 64.1199 147.702 64.9998C148.375 64.94 147.644 78.8006 137.545 77.7907C136.842 74.5603 137.04 74.761 136.213 70.6071C135.827 70.1981 135.405 69.8256 134.984 69.4537L132.705 67.4424C130.056 65.1035 127.645 62.2169 124.116 61.3428C121.69 60.7421 120.156 60.6065 121.478 57.8731C120.284 58.3715 119.168 59.1127 117.963 59.5756C117.98 59.1937 118.148 58.7663 118.125 58.3841Z" fill="#777777"/>
<path d="M135.04 72.1307C136.352 72.1307 137.416 71.0669 137.416 69.7546C137.416 68.4424 136.352 67.3786 135.04 67.3786C133.728 67.3786 132.664 68.4424 132.664 69.7546C132.664 71.0669 133.728 72.1307 135.04 72.1307Z" fill="#FFB9B9"/>
<defs>
<clipPath id="clip0">
<rect width="28" height="27.8884" fill="white" transform="translate(46 17)"/>
</clipPath>
</defs>
</svg>

<svg width="163" height="175" fill="none" xmlns="http://www.w3.org/2000/svg"><path d="M60 0c20.99 0 38 13.716 38 30.643 0 7.307-3.177 13.995-8.46 19.255 1.854 7.425 8.06 14.04 8.133 14.113.327.339.416.84.223 1.282a1.163 1.163 0 0 1-1.084.707c-9.84 0-17.218-4.685-20.87-7.572A45.576 45.576 0 0 1 60 61.286c-20.99 0-38-13.716-38-30.643S39.01 0 60 0Z" fill="#C4C4C4"/><g clip-path="url(#a)" fill-rule="evenodd" clip-rule="evenodd" fill="#fff"><path d="M46.342 17.34a1.17 1.17 0 0 1 1.65 0l25.666 25.565c.456.454.456 1.19 0 1.643a1.17 1.17 0 0 1-1.65 0L46.342 18.984a1.159 1.159 0 0 1 0-1.644Zm18.116 12.002a1.169 1.169 0 0 1 1.56-.534 13.935 13.935 0 0 1 2.903 1.89c.492.415.552 1.148.135 1.637a1.17 1.17 0 0 1-1.644.134 11.6 11.6 0 0 0-2.417-1.573 1.16 1.16 0 0 1-.537-1.554Z"/><path d="M59.015 28.61a1.163 1.163 0 0 1-.953 1.341 11.616 11.616 0 0 0-5.48 2.524 1.17 1.17 0 0 1-1.644-.146 1.159 1.159 0 0 1 .147-1.637 13.955 13.955 0 0 1 6.583-3.031 1.166 1.166 0 0 1 1.347.949Zm6.505-3.748a17.567 17.567 0 0 0-6.931-.836 1.165 1.165 0 0 1-1.257-1.064c-.052-.64.427-1.2 1.07-1.252a19.908 19.908 0 0 1 7.855.947 19.853 19.853 0 0 1 6.858 3.93c.483.424.53 1.159.103 1.64a1.17 1.17 0 0 1-1.647.102 17.516 17.516 0 0 0-6.051-3.467Zm-11.295-1.177a1.16 1.16 0 0 1-.657 1.508 17.41 17.41 0 0 0-5.139 3.136 1.17 1.17 0 0 1-1.647-.101 1.159 1.159 0 0 1 .102-1.64 19.741 19.741 0 0 1 5.828-3.557c.6-.236 1.277.057 1.513.654Zm5.781 11.909a5.85 5.85 0 0 0-3.379 1.073 1.17 1.17 0 0 1-1.626-.274 1.159 1.159 0 0 1 .275-1.62 8.189 8.189 0 0 1 9.46 0c.525.371.648 1.097.275 1.62a1.17 1.17 0 0 1-1.627.274 5.85 5.85 0 0 0-3.378-1.073Zm-1.173 4.646c0-.641.523-1.162 1.167-1.162h.012c.644 0 1.166.52 1.166 1.162 0 .642-.522 1.162-1.166 1.162H60c-.644 0-1.167-.52-1.167-1.162Z"/></g><path d="M113.67 76.958a4.937 4.937 0 0 0-1.547-3.617 4.917 4.917 0 0 0-3.701-1.33 4.922 4.922 0 0 0-4.552 5.594L89.724 96.13a6.858 6.858 0 0 0 .927 7.53l1.11 1.295 5.091-1.018 5.771-5.092-.679-5.77 7.128-11.202-.009-.008a4.922 4.922 0 0 0 4.607-4.907Z" fill="#FFB9B9"/><path d="m15.17 167.114-2.31-8.576 31.98-12.987 3.407 12.657-33.078 8.906Z" fill="#FFB8B8"/><path d="M7.445 171.539 0 143.887l.35-.094a11.144 11.144 0 0 1 13.66 7.865l4.548 16.889-11.113 2.992Z" fill="#777"/><path d="m59.22 165.743-7.183-5.223 16.73-30.19 10.6 7.709-20.148 27.704Z" fill="#FFB8B8"/><path d="m55.988 174.038-23.16-16.843.213-.292a11.145 11.145 0 0 1 15.57-2.46v.001l14.146 10.287-6.769 9.307Zm64.286-50.483L102.2 105.997a9.128 9.128 0 0 0-11.951-.668L56.12 143.242l3.055 4.752 32.586-22.063 22.063 28.852 21.045-10.522-14.596-20.706Z" fill="#777"/><path d="m112.468 127.289-13.239-1.018-9.586-2.325a4.926 4.926 0 0 0-9.02 1.946 4.925 4.925 0 0 0 8.085 4.445l-.001.007 5.77 2.376 24.779 8.486 3.055-2.376-9.843-11.541Z" fill="#FFB9B9"/><path d="m144.374 163.948-7.467 4.752h-8.826L87.01 153.426l-60.08 10.862-1.697-12.899 54.988-24.1 48.2 15.953 15.953 20.706Z" fill="#777"/><path d="M128.421 81.465c7.311 0 13.238-5.927 13.238-13.238s-5.927-13.238-13.238-13.238-13.238 5.927-13.238 13.238 5.927 13.238 13.238 13.238Z" fill="#FFB9B9"/><path d="M162.673 121.081a76.068 76.068 0 0 1-3.73 23.526l-.991 3.048-4.752 21.724-5.092 1.358-3.734-4.752-7.467-5.431-5.431-8.826-4.657-7.759-1.453-2.424-5.091-25.457-19.348-10.862-6.45-1.019 1.358-3.733 5.771-7.808 5.77-.678 1.697-1.358 1.358.679 7.484 2.883 24.267-10.252 3.55.58 12.22 10.183a75.993 75.993 0 0 1 4.721 26.378Z" fill="#CCC"/><path opacity=".1" d="m158.97 118.124-12.898 8.486-19.253 17.358-1.453-2.423-4.073-20.366h1.018l10.523-19.347 26.136 16.292Z" fill="#000"/><path d="m132.834 99.795-10.523 19.347-6.11 6.789-5.43 1.358 14.595 15.953 20.706-18.669 12.898-8.486-26.136-16.292Z" fill="#CCC"/><path d="m118.125 58.384-1.435.552a1.985 1.985 0 0 1-.843-1.28 1.996 1.996 0 0 1 .308-1.501l.023-.034-2.65-.124a20.009 20.009 0 0 1 14.397-7.932 20.017 20.017 0 0 1 15.482 5.524c.121-.416 1.436.393 1.974 1.213.18-.676 1.413 2.593 1.85 4.904.202-.77.978.473.298 1.665.431-.063.626 1.04.292 1.654.472-.222.392 1.095-.119 1.975.673-.06-.058 13.8-10.157 12.79-.703-3.23-.505-3.029-1.332-7.183-.386-.409-.808-.781-1.229-1.153l-2.279-2.012c-2.649-2.338-5.06-5.225-8.589-6.1-2.426-.6-3.96-.736-2.638-3.469-1.194.498-2.31 1.24-3.515 1.703.017-.382.185-.81.162-1.192Z" fill="#777"/><path d="M135.04 72.13a2.376 2.376 0 1 0 0-4.752 2.376 2.376 0 0 0 0 4.753Z" fill="#FFB9B9"/><defs><clipPath id="a"><path fill="#fff" transform="translate(46 17)" d="M0 0h28v27.888H0z"/></clipPath></defs></svg>
